img/whatsApp-dark.svg

<svg width="24" height="24" viewBox="0 0 24 24" fill="none" xmlns="http://www.w3.org/2000/svg">
<rect width="24" height="24" rx="12" fill="#F2F2ED"/>
<path d="M16.7561 7.23749C15.5707 6.05624 13.9902 5.39999 12.3219 5.39999C8.85366 5.39999 6.0439 8.19999 6.0439 11.6562C6.0439 12.75 6.35122 13.8437 6.87805 14.7625L6 18L9.33659 17.125C10.2585 17.6062 11.2683 17.8687 12.3219 17.8687C15.7902 17.8687 18.6 15.0687 18.6 11.6125C18.5561 9.99374 17.9415 8.41874 16.7561 7.23749ZM15.3512 13.8875C15.2195 14.2375 14.6049 14.5875 14.2976 14.6312C14.0341 14.675 13.6829 14.675 13.3317 14.5875C13.1122 14.5 12.8049 14.4125 12.4537 14.2375C10.8732 13.5812 9.86342 12.0062 9.77561 11.875C9.68781 11.7875 9.11707 11.0437 9.11707 10.2562C9.11707 9.46874 9.51219 9.11874 9.6439 8.94374C9.77561 8.76874 9.95122 8.76874 10.0829 8.76874C10.1707 8.76874 10.3024 8.76874 10.3902 8.76874C10.478 8.76874 10.6098 8.72499 10.7415 9.03124C10.8732 9.33749 11.1805 10.125 11.2244 10.1687C11.2683 10.2562 11.2683 10.3437 11.2244 10.4312C11.1805 10.5187 11.1366 10.6062 11.0488 10.6937C10.961 10.7812 10.8732 10.9125 10.8293 10.9562C10.7415 11.0437 10.6537 11.1312 10.7415 11.2625C10.8293 11.4375 11.1366 11.9187 11.6195 12.3562C12.2341 12.8812 12.7171 13.0562 12.8927 13.1437C13.0683 13.2312 13.1561 13.1875 13.2439 13.1C13.3317 13.0125 13.639 12.6625 13.7268 12.4875C13.8146 12.3125 13.9463 12.3562 14.078 12.4C14.2098 12.4437 15 12.8375 15.1317 12.925C15.3073 13.0125 15.3951 13.0562 15.439 13.1C15.4829 13.2312 15.4829 13.5375 15.3512 13.8875Z" fill="#0097AA"/>
</svg>

<svg width="24" height="24" fill="none" xmlns="http://www.w3.org/2000/svg"><rect width="24" height="24" rx="12" fill="#F2F2ED"/><path d="M16.756 7.237A6.257 6.257 0 0012.322 5.4c-3.468 0-6.278 2.8-6.278 6.256a6.32 6.32 0 00.834 3.106L6 18l3.337-.875a6.42 6.42 0 002.985.744c3.468 0 6.278-2.8 6.278-6.256-.044-1.62-.659-3.194-1.844-4.376zm-1.405 6.65c-.132.35-.746.7-1.053.744a2.461 2.461 0 01-.966-.043c-.22-.088-.527-.175-.878-.35-1.58-.657-2.59-2.232-2.678-2.363-.088-.088-.659-.831-.659-1.619 0-.787.395-1.137.527-1.312.132-.175.307-.175.439-.175h.307c.088 0 .22-.044.351.262.132.306.44 1.094.483 1.138a.278.278 0 010 .262.915.915 0 01-.175.263c-.088.087-.176.218-.22.262-.088.088-.175.175-.088.306.088.175.396.657.879 1.094.614.525 1.097.7 1.273.788.175.087.263.043.35-.044.089-.088.396-.438.484-.612.088-.175.22-.132.351-.088.132.044.922.438 1.054.525.175.087.263.131.307.175.044.131.044.438-.088.787z" fill="#0097AA"/></svg>
